X: 17852
T: Horizonto
R: jig
M: 6/8
K: Eminor
|:BcB ABG|AFG EFD|B,2E EFG|F2D DEF|
G2G GAG|F2D DEF|GFE FED|B,^CD E3:|
C2E EFG|C2E EFG|B,2E EFG|B,2E EFG|
C2E EFG|C2E EFG|BcB ABG|AFG EFD|
C2E EFG|C2E EFG|B,2E EFG|B,2E EFG|
C2E EFG|C2E EFG|^C2E EFG|^C2E EFG||
c2 B2 AG|F3 FGA|B2 A2 GF|E3 EFG|
A2 G2 FE|^D3 DEF|G2 A2 ^A2|B3 BAB|
c2 d2 c2|F3 FGA|B2 c2 B2|E3 EFG|
A2 G2 FE|^D3 DEF|GFE FED|E6||

